X:1
T:Brittish Grenadiers, 76.76 D
T:Brittish Grenadiers, 76.76 D
T:Traditional English melody
T:Pulblic Domain Courtesy of the Cyber Hymnal™
C:Traditional English melody
Z:Pulblic Domain
Z:Courtesy of the Cyber Hymnal™
%%score ( 1 2 ) ( 3 4 )
L:1/8
Q:1/4=145
M:4/4
K:G
V:1 treble 
V:2 treble 
V:3 bass 
V:4 bass 
V:1
 [CD]2 | [B,G]2 [B,D]2 [B,G]2 [FA]2 | [GB]4 [FA]2 (Bc) | [Gd]2 [EG]2 (BA) (GF) | [B,G]6 [CD]2 | %5
 [B,G]2 D2 [B,G]2 [FA]2 | [GB]4 [FA]2 (Bc) | [Gd]2 [EG]2 (BA) (GF) | [B,G]6 ([GB][Fc]) | %9
 [Gd]3 [Ge] [Gd]2 [Fc]2 | [GB]3 [Fc] [Gd]2 [=FG]2 x2 | [Ee]2 [Ee]2 (dc) (BA) | (G4 F2) D2 | %13
 [DG]2 D2 [B,G]2 [FA]2 | [GB]4 [FA]2 (Bc) | [Gd]2 [EG]2 (BA) (GF) | [B,G]6 |] %17
V:2
 x2 | x8 | x6 F2 | x4 E2 C2 | x8 | x2 D2 x4 | x6 F2 | x4 E2 C2 | x8 | x8 | x10 | x4 E2 E2 | D6 D2 | %13
 x2 D2 x4 | x6 F2 | x4 E2 C2 | x6 |] %17
V:3
 [D,F,]2 | (G,2 G,2) [E,G,]2 [D,D]2 | D4 [D,D]2 [C,D]2 | [B,,D]2 [E,B,]2 [C,C]2 [D,A,]2 | %4
 [G,,G,]6 [D,F,]2 | [G,,G,]2 [B,,G,]2 [E,G,]2 [D,D]2 | D4 [D,D]2 [C,D]2 | %7
 [B,,D]2 [E,B,]2 [A,,C]2 [D,A,]2 | [G,,G,]6 D2 | [B,D]3 C [B,D]2 [A,D]2 | D4 A,2 [B,D]2 [G,B,]2 | %11
 [C,G,]2 [C,^G,]2 [C,A,]2 [C,C]2 | (B,4 A,2) [C,F,]2 | [B,,G,]2 [D,F,]2 [E,G,]2 [D,D]2 | %14
 D4 [D,D]2 [C,D]2 | [B,,D]2 [E,B,]2 [A,,C]2 [D,A,]2 | [G,,G,]6 |] %17
V:4
 x2 | G,,4 x4 | (G,,2 B,,2) x4 | x8 | x8 | x8 | (G,,2 B,,2) x4 | x8 | x6 (G,A,) | x3 C x4 | %10
 G,2 x8 | x8 | D,6 x2 | x8 | (G,,2 B,,2) x4 | x8 | x6 |] %17

